nova/resources/svg/fluent/checkmark-circle.svg

<svg viewBox="0 0 24 24" fill="none" xmlns="http://www.w3.org/2000/svg">
<path d="M12 2C17.5228 2 22 6.47715 22 12C22 17.5228 17.5228 22 12 22C6.47715 22 2 17.5228 2 12C2 6.47715 6.47715 2 12 2ZM12 3.5C7.30558 3.5 3.5 7.30558 3.5 12C3.5 16.6944 7.30558 20.5 12 20.5C16.6944 20.5 20.5 16.6944 20.5 12C20.5 7.30558 16.6944 3.5 12 3.5ZM10.75 13.4393L15.2197 8.96967C15.5126 8.67678 15.9874 8.67678 16.2803 8.96967C16.5466 9.23594 16.5708 9.6526 16.3529 9.94621L16.2803 10.0303L11.2803 15.0303C11.0141 15.2966 10.5974 15.3208 10.3038 15.1029L10.2197 15.0303L7.71967 12.5303C7.42678 12.2374 7.42678 11.7626 7.71967 11.4697C7.98594 11.2034 8.4026 11.1792 8.69621 11.3971L8.78033 11.4697L10.75 13.4393L15.2197 8.96967L10.75 13.4393Z" fill="currentColor"/>
</svg>

<svg viewBox="0 0 24 24" fill="none" xmlns="http://www.w3.org/2000/svg"><path d="M12 2c5.523 0 10 4.477 10 10s-4.477 10-10 10S2 17.523 2 12 6.477 2 12 2zm0 1.5a8.5 8.5 0 100 17 8.5 8.5 0 000-17zm-1.25 9.94l4.47-4.47a.75.75 0 011.133.976l-.073.084-5 5a.75.75 0 01-.976.073l-.084-.073-2.5-2.5a.75.75 0 01.976-1.133l.084.073 1.97 1.97 4.47-4.47-4.47 4.47z" fill="currentColor"/></svg>
